packages/foundations/icons/Creativity/Ruler.svg

<svg width="24" height="24" viewBox="0 0 24 24" fill="none" xmlns="http://www.w3.org/2000/svg">
<path d="M6.75 9C6.75 8.58579 6.41421 8.25 6 8.25C5.58579 8.25 5.25 8.58579 5.25 9V9.75H6.75V9Z" fill="#3D474D"/>
<path d="M10 12.75C10.4142 12.75 10.75 12.4142 10.75 12V9.75H9.25V12C9.25 12.4142 9.58579 12.75 10 12.75Z" fill="#3D474D"/>
<path d="M10.75 9C10.75 8.58579 10.4142 8.25 10 8.25C9.58579 8.25 9.25 8.58579 9.25 9V9.75H10.75V9Z" fill="#3D474D"/>
<path d="M14.75 9C14.75 8.58579 14.4142 8.25 14 8.25C13.5858 8.25 13.25 8.58579 13.25 9V9.75H14.75V9Z" fill="#3D474D"/>
<path fill-rule="evenodd" clip-rule="evenodd" d="M2.86528 9.79493C2.89189 9.78069 2.90204 9.77646 2.93292 9.7705C2.98154 9.76111 3.07912 9.75 3.28194 9.75H5.25V12C5.25 12.4142 5.58579 12.75 6 12.75C6.41421 12.75 6.75 12.4142 6.75 12V9.75H9.25V9C9.25 8.58579 9.58579 8.25 10 8.25C10.4142 8.25 10.75 8.58579 10.75 9V9.75H13.25V12C13.25 12.4142 13.5858 12.75 14 12.75C14.4142 12.75 14.75 12.4142 14.75 12V9.75H17.25V12C17.25 12.4142 17.5858 12.75 18 12.75C18.4142 12.75 18.75 12.4142 18.75 12V9.75H20.7181C20.9209 9.75 21.0185 9.76111 21.0671 9.7705C21.098 9.77646 21.1081 9.78069 21.1347 9.79493C21.167 9.81218 21.1878 9.83302 21.2051 9.86528C21.2193 9.89189 21.2235 9.90204 21.2295 9.93291C21.2389 9.98154 21.25 10.0791 21.25 10.2819V13.7181C21.25 13.9209 21.2389 14.0185 21.2295 14.0671C21.2235 14.098 21.2193 14.1081 21.2051 14.1347C21.1878 14.167 21.167 14.1878 21.1347 14.2051C21.1081 14.2193 21.098 14.2235 21.0671 14.2295C21.0185 14.2389 20.9209 14.25 20.7181 14.25H3.28194C3.07912 14.25 2.98154 14.2389 2.93292 14.2295C2.90204 14.2235 2.89189 14.2193 2.86528 14.2051C2.83301 14.1878 2.81218 14.167 2.79493 14.1347C2.78069 14.1081 2.77646 14.098 2.7705 14.0671C2.76111 14.0185 2.75 13.9209 2.75 13.7181V10.2819C2.75 10.0791 2.76111 9.98154 2.7705 9.93292C2.77646 9.90204 2.78069 9.89189 2.79493 9.86528C2.81218 9.83301 2.83301 9.81218 2.86528 9.79493ZM18 8.25C17.5858 8.25 17.25 8.58579 17.25 9V9.75H18.75V9C18.75 8.58579 18.4142 8.25 18 8.25ZM14 8.25H10H6H3.28194C2.77542 8.25 2.47399 8.30315 2.15788 8.47221C1.86421 8.62926 1.62926 8.86421 1.47221 9.15788C1.30315 9.47399 1.25 9.77542 1.25 10.2819V13.7181C1.25 14.2246 1.30315 14.526 1.47221 14.8421C1.62926 15.1358 1.86421 15.3707 2.15788 15.5278C2.47399 15.6969 2.77542 15.75 3.28194 15.75H20.7181C21.2246 15.75 21.526 15.6969 21.8421 15.5278C22.1358 15.3707 22.3707 15.1358 22.5278 14.8421C22.6969 14.526 22.75 14.2246 22.75 13.7181V10.2819C22.75 9.77542 22.6969 9.47399 22.5278 9.15788C22.3707 8.86421 22.1358 8.62926 21.8421 8.47221C21.526 8.30315 21.2246 8.25 20.7181 8.25H18H14ZM14 8.25C14.4142 8.25 14.75 8.58579 14.75 9V9.75H13.25V9C13.25 8.58579 13.5858 8.25 14 8.25ZM6 8.25C6.41421 8.25 6.75 8.58579 6.75 9V9.75H5.25V9C5.25 8.58579 5.58579 8.25 6 8.25Z" fill="#3D474D"/>
<path d="M18.75 9C18.75 8.58579 18.4142 8.25 18 8.25C17.5858 8.25 17.25 8.58579 17.25 9V9.75H18.75V9Z" fill="#3D474D"/>
</svg>

<svg xmlns="http://www.w3.org/2000/svg" fill="none" viewBox="0 0 24 24" width="100%" height="100%">
  <path fill="#3D474D" d="M6.75 9a.75.75 0 0 0-1.5 0v.75h1.5V9ZM10 12.75a.75.75 0 0 0 .75-.75V9.75h-1.5V12c0 .414.336.75.75.75ZM10.75 9a.75.75 0 0 0-1.5 0v.75h1.5V9Zm4 0a.75.75 0 0 0-1.5 0v.75h1.5V9Z"/>
  <path fill="#3D474D" fill-rule="evenodd" d="M2.865 9.795a.188.188 0 0 1 .068-.024c.049-.01.146-.021.349-.021H5.25V12a.75.75 0 0 0 1.5 0V9.75h2.5V9a.75.75 0 0 1 1.5 0v.75h2.5V12a.75.75 0 0 0 1.5 0V9.75h2.5V12a.75.75 0 0 0 1.5 0V9.75h1.968c.203 0 .3.011.35.02.03.006.04.01.067.025a.16.16 0 0 1 .07.07.19.19 0 0 1 .025.068c.009.049.02.146.02.349v3.436c0 .203-.011.3-.02.35a.19.19 0 0 1-.025.067.16.16 0 0 1-.07.07.19.19 0 0 1-.068.024c-.049.01-.146.021-.349.021H3.282c-.203 0-.3-.011-.35-.02a.19.19 0 0 1-.067-.025.16.16 0 0 1-.07-.07.188.188 0 0 1-.024-.068 1.977 1.977 0 0 1-.021-.349v-3.436c0-.203.011-.3.02-.35a.188.188 0 0 1 .025-.067.16.16 0 0 1 .07-.07ZM18 8.25a.75.75 0 0 0-.75.75v.75h1.5V9a.75.75 0 0 0-.75-.75Zm-4 0H3.282c-.507 0-.808.053-1.124.222a1.658 1.658 0 0 0-.686.686c-.169.316-.222.617-.222 1.124v3.436c0 .507.053.808.222 1.124.157.294.392.529.686.686.316.169.617.222 1.124.222h17.436c.507 0 .808-.053 1.124-.222.294-.157.529-.392.686-.686.169-.316.222-.617.222-1.124v-3.436c0-.507-.053-.808-.222-1.124a1.659 1.659 0 0 0-.686-.686c-.316-.169-.617-.222-1.124-.222H14Zm0 0a.75.75 0 0 1 .75.75v.75h-1.5V9a.75.75 0 0 1 .75-.75Zm-8 0a.75.75 0 0 1 .75.75v.75h-1.5V9A.75.75 0 0 1 6 8.25Z" clip-rule="evenodd"/>
  <path fill="#3D474D" d="M18.75 9a.75.75 0 0 0-1.5 0v.75h1.5V9Z"/>
</svg>
